X: 325
T:Capt. Macintosh's Fancy. JaW.324
M:C|
Q:160
S:James Winder Ms, Lancashire, 1835-41
R:Country Dance
O:England
A:Wyresdale,Lancashire
N:Quite a bit of writing after the title that I can't make out on my
N:photocopy..
H:1/8
Z:vmp.Chris Partington, Aug 2004
K:D
"Key G in MS"A|d>ed>f dAAA|d>ed>f a2f2|bg-ge af-fd|e>fge (dc)(BA)|!
d>ed>f dAAA|d>ed>f a2f2|bg-ge af-fd|ge-ec d2d2:|!
|:(fg)|a>ba>b ge-ef|g>ag>a f2d2|(Ad/e/) fd (Be/f/) ge|bgec (dc)(BA)|!
d>ed>f dAAA|d>ed>f a2f2|bg-ge af-fd|ge-ec d2d2:|]
